X: 24
T: POLKAS: Weaver's Delight Set
T: Weaver's Delight
C: C: Trad.; S: Denis Murphy / Julia & Billy Clifford / Denis Murphy & Johnny O'Leary
C: Set Leaders: Olya, Anton
Z: Anton Zille ed.; Bregolas at The Session
N: https://thesession.org/members/26966/sets/71310
R: Polka
M: 2/4
L: 1/8
Q: 1/4=140
K: Dmaj
|:AG|FG/F/ ED|dc/d/ e>d|cA AF|G2 AG|
FG/F/ ED|dc/d/ e/f/e/d/|cA Bd|1 A2:|2 A2 Af/g/||
|:af ge|fd e>d|cd ef|g2 gf/g/|
af ge|fd e/f/e/d/|cA Bd|1 A2 Af/g/:|2 A4||
T: Bridgie Con Matt's
K: Gmaj
|:GB BA/c/|BG G>D|GB B/c/d/B/|AD FA|
GB BA/c/|BG G/A/B/c/|dd B/c/d/B/|AD FA :||
|:Be ef/e/|d/e/f/a/ g2|Be ed/B/|AD FA |
Be ef/e/|d/e/f/a/ g2|g/a/g/e/ d/e/d/B/|AD FA :||
T: Denis Murphy's
K: Dmaj
|:f/g/f/e/ d/c/d/B/|AD FA/F/|GE e>d|cB cA|
f/g/f/e/ d/c/d/B/|AD FA/F/|GE e>g|1 fd d2:|2 fd d>B||
|:Af f/e/f|Ag g/f/g|Af f/e/f|e/f/e/d/ BA|
Af f/e/f|Ag g>a|ba f/a/a/f/|1 ed d>B:|2 ed d2||

